X:1
T:Heilig, heilig, heilig
T:André Vierendeels
T:Melody by Georg Vogler (1625) (Sprano voice)
T:Source : Catechismus---Würzburg---J.Volmari---1652. Editor : André Vierendeels (04/09/17).
T:Notes : Original clef : C1 (Notated as "C5" !!!), other voices supplied editorially Original note values have been halved Text Middle german
T:Heilig, heilig, heilig
T:©
T:©
T:©
C:André Vierendeels
Z:©
%%score [ 1 2 3 ]
L:1/8
Q:1/4=120
M:2/2
K:C
V:1 treble nm="Soprano" snm="S"
V:2 treble-8 nm="Tenor" snm="T"
V:3 bass nm="Bass" snm="B"
V:1
 G4 F4 | E4 D2 D2 | E2 ^F2 G4 | z4 B4 | B2 G2 B4 | A4 G2 G2 | D4 z4 | G4 E4 | F4 G2 G2 | A4 c4 | %10
w: Hei- lig,|hei- lig, hei-|lig ist Gott,|der|all- mäch- tig|Herz Sa- ba-|oth.|Von Sün-|den frey, hei-|lig und|
 B4 z4 | G4 c2 B2 | c2 d4 c2- | c2 B2 c4 | z4 B4 | A4 G2 A2 | G2 F2 E4 | D4 z4 | A4 B4 | %19
w: rein,|müs- sen all|sei- ne Kin-|* der seyn.|Hilff|Je- su Christ|zu die- sem|End,|mach hei-|
 c2 B2 A2 G2- | G2 ^F2 !fermata!G4 |] %21
w: lig durch die Sa-|* cra- ment.|
V:2
 B4 d4 | G4 A2 B2 | c2 A2 B4 | z4 d4 | e2 e2 d4 | d4 B2 c2 | A4 z4 | B4 G4 | A4 B2 d2 | d4 e4 | %10
w: Hei- lig,|hei- lig, hei-|lig ist Gott,|der|all- mäch- tig|Herz Sa- ba|oth.|Von Sün-|den frey, hei-|lig und|
 d4 z4 | e4 e2 e2 | e2 d2 f2 e2 | c2 d2 e4 | z4 G4 | c4 d2 e2 | d2 A2 c4 | A4 z4 | e4 d4 | %19
w: rein,|müs- sen all|sei- * ne Kin-|* der seyn.|Hiff|Je- su Christ|zu die- sem|End,|mach hei-|
 e2 e2 c2 B2 | d4 B4 |] %21
w: lig durch die Sa-|cra- ment.|
V:3
 G,4 D,4 | C,4 F,2 G,2 | C,2 D,2 G,4 | z4 G,4 | E,2 C,2 G,,4 | D,4 G,2 E,2 | D,4 z4 | G,4 C,4 | %8
w: Hei- lig,|hei- lig, hei-|lig ist Gott,|der|all- mäch- tig|Herz Sa- ba-|oth.|Von Sün-|
 D,4 G,2 G,2 | D,4 C,4 | G,4 z4 | C,4 A,,2 E,2 | C,2 G,2 D,2 C,2 | E,2 G,2 C,4 | z4 E,4 | %15
w: den frey, hei-|lig und|rein,|müs- sen all|sei- * ne Kin-|* der seyn.|Hillf|
 A,,4 G,,2 C,2 | B,,2 D,2 C,4 | D,4 z4 | A,,4 G,,4 | C,2 E,2 F,2 G,2 | A,4 G,4 |] %21
w: Je- su Christ|zu die- sem|End,|mach hei-|lig durch die Sa-|cra- ment.|

